icons/svg/sport/athletics.svg

<?xml version="1.0" encoding="UTF-8" standalone="no"?>
<!-- Created with Inkscape (http://www.inkscape.org/) -->

<svg
   xmlns:dc="http://purl.org/dc/elements/1.1/"
   xmlns:cc="http://creativecommons.org/ns#"
   xmlns:rdf="http://www.w3.org/1999/02/22-rdf-syntax-ns#"
   xmlns:svg="http://www.w3.org/2000/svg"
   xmlns="http://www.w3.org/2000/svg"
   xmlns:sodipodi="http://sodipodi.sourceforge.net/DTD/sodipodi-0.dtd"
   xmlns:inkscape="http://www.inkscape.org/namespaces/inkscape"
   version="1.0"
   width="580"
   height="580"
   id="svg2"
   sodipodi:version="0.32"
   inkscape:version="0.91 r"
   sodipodi:docname="athletics.svg"
   inkscape:output_extension="org.inkscape.output.svg.inkscape">
  <metadata
     id="metadata2975">
    <rdf:RDF>
      <cc:Work
         rdf:about="">
        <dc:format>image/svg+xml</dc:format>
        <dc:type
           rdf:resource="http://purl.org/dc/dcmitype/StillImage" />
        <cc:license
           rdf:resource="http://web.resource.org/cc/PublicDomain" />
        <dc:language>en</dc:language>
        <dc:title />
      </cc:Work>
    </rdf:RDF>
  </metadata>
  <sodipodi:namedview
     inkscape:window-height="1004"
     inkscape:window-width="1920"
     inkscape:pageshadow="2"
     inkscape:pageopacity="0.0"
     guidetolerance="10.0"
     gridtolerance="10.0"
     objecttolerance="10.0"
     borderopacity="1.0"
     bordercolor="#666666"
     pagecolor="#ffffff"
     id="base"
     inkscape:zoom="0.46083856"
     inkscape:cx="409.2659"
     inkscape:cy="502.00364"
     inkscape:window-x="1680"
     inkscape:window-y="0"
     inkscape:current-layer="svg2"
     showgrid="false"
     inkscape:window-maximized="1" />
  <defs
     id="defs4">
    <inkscape:perspective
       sodipodi:type="inkscape:persp3d"
       inkscape:vp_x="0 : 290 : 1"
       inkscape:vp_y="0 : 1000 : 0"
       inkscape:vp_z="580 : 290 : 1"
       inkscape:persp3d-origin="290 : 193.33333 : 1"
       id="perspective10" />
  </defs>
  <g
     id="g1327">
    <path
       d="M 66.275,1.768 C 24.94,1.768 1.704,23.139 1.704,66.804 l 0,450.123 c 0,40.844 20.895,62.229 62.192,62.229 l 452.024,0 c 41.307,0 62.229,-20.315 62.229,-62.229 l 0,-450.123 c 0,-42.601 -20.922,-65.036 -63.521,-65.036 -0.004,0 -448.495,-0.143 -448.353,0 z"
       style="fill:#111111;stroke:#eeeeee;stroke-width:3.40799999"
       id="path1329"
       inkscape:connector-curvature="0" />
  </g>
  <circle
     transform="matrix(21.982449,0,0,21.982449,14.120266,26.210606)"
     sodipodi:ry="2"
     sodipodi:rx="2"
     sodipodi:cy="4"
     sodipodi:cx="17"
     cx="17"
     cy="4"
     r="2"
     id="circle3"
     style="fill:#ffffff;fill-opacity:1;stroke-width:2.00000453;stroke-miterlimit:10;stroke-dasharray:none" />
  <path
     style="color:#000000;font-style:normal;font-variant:normal;font-weight:normal;font-stretch:normal;font-size:medium;line-height:normal;font-family:sans-serif;text-indent:0;text-align:start;text-decoration:none;text-decoration-line:none;text-decoration-style:solid;text-decoration-color:#000000;letter-spacing:normal;word-spacing:normal;text-transform:none;direction:ltr;block-progression:tb;writing-mode:lr-tb;baseline-shift:baseline;text-anchor:start;white-space:normal;clip-rule:nonzero;display:inline;overflow:visible;visibility:visible;opacity:1;isolation:auto;mix-blend-mode:normal;color-interpolation:sRGB;color-interpolation-filters:linearRGB;solid-color:#000000;solid-opacity:1;fill:#ffffff;fill-opacity:1;fill-rule:nonzero;stroke:none;stroke-width:43.96500015;stroke-linecap:round;stroke-linejoin:miter;stroke-miterlimit:10;stroke-dasharray:none;stroke-dashoffset:0;stroke-opacity:1;color-rendering:auto;image-rendering:auto;shape-rendering:auto;text-rendering:auto;enable-background:accumulate"
     d="m 225.15234,338.36133 -6.22461,8.29883 c -4.77493,5.93305 -12.11298,9.28711 -17.95703,9.28711 l -98.91992,0 c -12.264333,-0.17657 -22.301163,9.71683 -22.301163,21.98242 0,12.26559 10.03683,22.15899 22.301163,21.98242 l 98.91992,0 c 20.51696,0 39.52569,-9.82065 52.33789,-25.83594 l 0.21485,-0.26758 6.80078,-9.06836 z"
     id="path5"
     inkscape:connector-curvature="0"
     sodipodi:nodetypes="ccscscscccc" />
  <path
     style="fill:none;stroke:#ffffff;stroke-width:43.965;stroke-miterlimit:10;stroke-opacity:1;stroke-dasharray:none;stroke-linejoin:miter;stroke-linecap:round"
     inkscape:connector-curvature="0"
     stroke-miterlimit="10"
     d="m 167.99741,202.0702 c 0,0 46.16314,-21.98244 70.34384,-35.17191 10.99123,-4.39649 21.98244,-6.59474 32.97366,-2.19825 l 28.57719,8.79298 37.37018,17.58597 c 8.79297,4.39648 15.3877,10.99121 19.78419,19.7842 l 17.58597,35.17192 c 6.59472,15.3877 21.98244,24.18069 39.5684,24.18069 26.37894,0 63.7491,0 63.7491,0"
     id="path7" />
  <path
     inkscape:connector-curvature="0"
     d="m 293.29737,180.08776 -52.75788,92.32629 c -10.99122,19.7842 -6.59474,43.9649 10.99123,59.35261 l 85.73156,61.55086 -26.37895,-63.7491 c 0,0 -17.58596,2.19824 -13.18948,-4.3965 l 63.7491,-114.30873 -68.14558,-30.77543 z"
     id="path9"
     style="fill:#ffffff;fill-opacity:1;stroke-width:43.96500015;stroke-miterlimit:10;stroke-dasharray:none" />
  <path
     inkscape:connector-curvature="0"
     d="M 319.67631,399.91225 277.90966,509.8245 c 0,0 -2.67702,18.09375 19.91698,18.44464 22.59401,0.35088 26.24615,-18.44464 26.24615,-18.44464 l 37.37016,-94.52454 c 8.79299,-24.18068 4.3965,-52.75787 -15.3877,-70.34383 l -52.75788,-52.75788 -30.77543,30.77542 52.75788,52.75788 c 6.59473,6.59474 8.79297,15.38773 4.39649,24.1807 z"
     id="path11"
     style="fill:#ffffff;fill-opacity:1;stroke-width:43.96500015;stroke-miterlimit:10;stroke-dasharray:none"
     sodipodi:nodetypes="cczcccccsc" />
</svg>

<svg width="580" height="580" viewBox="0 0 580 580" fill="none" xmlns="http://www.w3.org/2000/svg">
<g clip-path="url(#clip0)">
<path d="M66.2751 1.76815C24.9401 1.76815 1.7041 23.1391 1.7041 66.8041V516.927C1.7041 557.771 22.5991 579.156 63.8961 579.156H515.92C557.227 579.156 578.149 558.841 578.149 516.927V66.8041C578.149 24.2031 557.227 1.76815 514.628 1.76815C514.624 1.76815 66.1331 1.62515 66.2751 1.76815V1.76815Z" fill="#111111" stroke="#EEEEEE" stroke-width="3.408"/>
<path d="M387.822 158.105C412.103 158.105 431.787 138.421 431.787 114.14C431.787 89.859 412.103 70.1753 387.822 70.1753C363.541 70.1753 343.857 89.859 343.857 114.14C343.857 138.421 363.541 158.105 387.822 158.105Z" fill="white"/>
<path d="M225.152 338.361L218.928 346.66C214.153 352.593 206.815 355.947 200.971 355.947H102.051C89.7863 355.771 79.7495 365.664 79.7495 377.93C79.7495 390.195 89.7863 400.089 102.051 399.912H200.971C221.488 399.912 240.496 390.091 253.308 374.076L253.523 373.809L260.324 364.74L225.152 338.361Z" fill="white"/>
<path d="M167.997 202.07C167.997 202.07 214.16 180.088 238.341 166.898C249.332 162.502 260.324 160.304 271.315 164.7L299.892 173.493L337.262 191.079C346.055 195.476 352.65 202.07 357.046 210.863L374.632 246.035C381.227 261.423 396.615 270.216 414.201 270.216C440.58 270.216 477.95 270.216 477.95 270.216" stroke="white" stroke-width="43.965" stroke-miterlimit="10" stroke-linecap="round"/>
<path d="M293.297 180.088L240.539 272.414C229.548 292.198 233.945 316.379 251.531 331.767L337.262 393.318L310.883 329.569C310.883 329.569 293.297 331.767 297.694 325.172L361.443 210.863L293.297 180.088V180.088Z" fill="white"/>
<path d="M319.676 399.912L277.91 509.824C277.91 509.824 275.233 527.918 297.827 528.269C320.421 528.62 324.073 509.824 324.073 509.824L361.443 415.3C370.236 391.119 365.839 362.542 346.055 344.956L293.297 292.198L262.522 322.974L315.28 375.732C321.875 382.326 324.073 391.119 319.676 399.912V399.912Z" fill="white"/>
</g>
<defs>
<clipPath id="clip0">
<path d="M0 0H580V580H0V0Z" fill="white"/>
</clipPath>
</defs>
</svg>
